lib/svg/location.svg

<svg xmlns="http://www.w3.org/2000/svg" width="12" height="16" viewBox="0 0 12 16"><path d="M6 0C2.69 0 0 2.5 0 5.5 0 10.02 6 16 6 16s6-5.98 6-10.5C12 2.5 9.31 0 6 0zm0 14.55C4.14 12.52 1 8.44 1 5.5 1 3.02 3.25 1 6 1c1.34 0 2.61.48 3.56 1.36.92.86 1.44 1.97 1.44 3.14 0 2.94-3.14 7.02-5 9.05zM8 5.5c0 1.11-.89 2-2 2-1.11 0-2-.89-2-2 0-1.11.89-2 2-2 1.11 0 2 .89 2 2z"/></svg>

<?xml version="1.0" encoding="UTF-8" standalone="no"?>
<svg width="12px" height="16px" viewBox="0 0 12 16" version="1.1" xmlns="http://www.w3.org/2000/svg" xmlns:xlink="http://www.w3.org/1999/xlink">
    <!-- Generator: Sketch 3.8.3 (29802) - http://www.bohemiancoding.com/sketch -->
    <title>location</title>
    <desc>Created with Sketch.</desc>
    <defs></defs>
    <g id="Octicons" stroke="none" stroke-width="1" fill="none" fill-rule="evenodd">
        <g id="location" fill="#000000">
            <path d="M6,0 C2.69,0 0,2.5 0,5.5 C0,10.02 6,16 6,16 C6,16 12,10.02 12,5.5 C12,2.5 9.31,0 6,0 L6,0 Z M6,14.55 C4.14,12.52 1,8.44 1,5.5 C1,3.02 3.25,1 6,1 C7.34,1 8.61,1.48 9.56,2.36 C10.48,3.22 11,4.33 11,5.5 C11,8.44 7.86,12.52 6,14.55 L6,14.55 Z M8,5.5 C8,6.61 7.11,7.5 6,7.5 C4.89,7.5 4,6.61 4,5.5 C4,4.39 4.89,3.5 6,3.5 C7.11,3.5 8,4.39 8,5.5 L8,5.5 Z" id="Shape"></path>
        </g>
    </g>
</svg>
